X:0906
T:Andrew Carey,
C:Irish.
N:actually "Andrew Kerr" and it's Scottish
M:9/8
L:1/8
Q:3/8=120
I: :: :|
Z:Jack Campin * www.campin.me.uk * 2009
K:D
d2B AFA AFA|d2d def e2c|d2B AFA ABc|d2D DEF E2D:|
F2G AFD AFD|F2G ABc dcA|F2G AFD AFD|d2D DEF E2D:|

